X: 35321
T: Roseland, The
R: barndance
M: 4/4
K: Bminor
|:Bd|fBdf eAce|dGBd cF^Ac|B2 d2 f2 b2|afdf a2 Bd|
fBdf eAce|dGBd cF^Ac|BfdB AecA|FAdc B2:|
K: D Major
|:Af|afdB Bdga|b2 a2 a2 Af|a2 g2 g2 Ae|g2 f2 f2 Af|
afdB Bdga|b2 a2 a2 Af|agec ABcd|edce d2:|
K: G Major
|:Bc|dGBd eGBd|eAce fAce|fBdf gBdf|agec ADdc|
B2 GB d2 cB|A2 AB cAdc|B2 GF EcEF|AGFA G2:|

